X:1
T:Title
%%score { ( 1 4 ) | ( 2 3 ) }
L:1/8
Q:1/4=84
M:6/8
K:Eb
V:1 treble nm="Grand Piano"
V:4 treble 
V:2 bass 
V:3 bass 
V:1
 GGG GFG | [GB]>[GB][GB] [EG]2 [B,E] | [DF]2 [DF] [CE]2 [DF] | G3 .B3 | GGG GFG | %5
w: J.~R.~Beveridge * * * * *|||||
 [GB]>[GB][GB] [B,EG]2 [G,E] | [CEF]2 [CEF] [B,DG]2 [A,DF] |[M:5/8] [G,E]-[G,E]- [G,E]3 | %8
w: |||
[M:1/8] [B,GB] |[M:3/4] [B,GB]2 [B,GB][EG] A[EGB] | E2 E[ce] dc | [GB]2 [GB][Ac] B[B,EG] | %12
w: ||||
 [DF]6[K:bass] | GG GA AA |[M:7/8] BBB c3 c |[M:3/4] B2 B [FA]2 D |[M:5/8] E-E- E3 |] %17
w: |||||
V:2
 [E,B,E][E,B,E][E,B,E] [E,B,E][E,B,D][E,B,E] | [E,E]>[E,E][E,E] [E,B,]2 [E,G,] | %2
 [B,,B,]2 [B,,A,] [C,G,]2 [B,,B,] | E3 z3 | [E,B,E][E,B,E][E,B,E] [E,B,E][E,B,D][E,B,E] | %5
 [E,E]>[E,E][E,E] E,2 E, | A,,2 A,, B,,2 B,, |[M:5/8] E,-E,- E,3 |[M:1/8] E, | %9
[M:3/4] E,2 .E,2 FE, | A,2 A,[K:treble]A,- [A,DB][A,EA] | [E,E]2 .[E,E]2 GE, | z A, B,, B,,3 | %13
 [E,G,E][E,CE] [E,B,E][F,A,D] [F,D][F,CD] |[M:7/8][K:treble] [G,B,E][G,E][G,DE] [A,CE]3 [=A,E_G] | %15
[M:3/4] [B,EG]2 [B,EG][K:bass] [B,,B,]2 [B,,A,B,] |[M:5/8] [G,B,]2 A, G,2 |] %17
V:3
 x6 | x6 | x6 | [E,B,]3- [E,B,G]3 | x6 | x6 | x6 |[M:5/8] x5 |[M:1/8] x |[M:3/4] z2 z .[E,B,]3 | %10
 z2 z[K:treble] C z2 | z2 z .[E,E]3 | B,,2 z2 z2 | x6 |[M:7/8][K:treble] x7 | %15
[M:3/4] x3[K:bass] x3 |[M:5/8] E,-E,- E,3 |] %17
V:4
 x6 | x6 | x6 | x6 | x6 | x6 | x6 |[M:5/8] x5 |[M:1/8] x |[M:3/4] x6 | [Ac]4 z2 | x6 | %12
 .B,2[K:bass] G, F,3 | x6 |[M:7/8] x7 |[M:3/4] x6 |[M:5/8] z2 C B,2 |] %17

